X: 1
T: Cherrybank Gardens                           Play 1 2 3
T: 3x32 3C set (Drewry, Bankhead Bk 1)
P: Calluna
C: Jim Berry
C: from John Chambers, mods by T. Traub 9-28-14
R: strathspey
S: Steve Wyrick email 2008-5-8
Z: 2008 John Chambers <jc@trillian.mit.edu>
N: Calluna vulgaris is the scientific name of white heather.
M: C
L: 1/8
K: D
"A7"A |"D"F>G!beambr1!A<f "D7"e>d!beambr1!B<d|"G"B<Gd>B "D"A2 A2|"G"B<Gd>B "D"A<Fd>F|"E7"E<ee>d "A7"c2 (3cBA |"D"F>G!beambr1!A<f "D7"e>d!beambr1!B<d|"G"B<Gd>B "D"A2 A2|
"G"B<g (3fed "D"A>a f>d | "A7"(3cBA f>e "D"d2 d2||"G"B<GB<d "A7"e>d!beambr1!c<B|"D"A>F!beambr1!A<d "Bm"f2- f>d|"A7"c<Ac<e "F#m"f>ed>c|
"Bm"(3dcB "F#"c>^A "Bm"B2 "D7"=A2|"G"B<GB<d "A7"e>d!beambr1!c<B|"D"A>F!beambr1!A<d "G"g2f>g|"D"a>g (3fed "G"B>g (3fed|"A7"(3cBA f>e "D"d2 d2 |]

